X: 1
T: Villapour\,con
O: Trad
R: waltz
Z: 2006 John Chambers <jc:trillian.mit.edu>
M: 3/4
L: 1/8
K: D
|: "D"D2F2G2 |    A2BAGF  |     D2F2G2  | A2BAGF \
| "Em"E4  F2 |    G2BAGF  | "A7"E4F2    | G2AGFE |
|  "D"F2D2FG |    A2BAGF  |     D2F2G2  | A2BAGF \
| "Em"E4  D2 | "G"d2c2=c2 | "A7"B2_B2A2 | G2F2E2 :|
|  "D"D2EF"D7"GA \
|: [K:G^f=c] "G"B3cB2 | B2G2B2 | d2c2B2 | "D7"A4D2 \
              | A3BA2 | A2F2A2 | c2B2A2 |1 "G"B4G2 :|2 "G"G6 |]
